X: 827
T: The Tailor's Thimble
N:"Collected by J.O'Neill"
B:O'Neill's 827
Z:Transcribed by Dan G. Petersen, dangp@post6.tele.dk
M:6/8
L:1/8
K:D
D|DFF FED|FAA A2d/c/|Bdd Add|Bdd AFE|
DFF FED|FAA A2c|(B/c/dB) AGF|1 EFE E2:|2 EFE D2|]
e|fgf fed|faa a2f|efe edB|def g2g|
fgf efe|ded cBA|(B/c/dB) AGF|1 EFE E2:|2 EFE D2|]


